X:519
T: Dao caicha
N: C0364
O: China,Zhejiang, Jiangde
S: III, 640]
R: Xiaodiao, Deng Xiaodiao. Teepfluecken]
M: 3/4
L: 1/16
K: A
cccBA2c2B3c | A2c2B3c | A2GFE2F2A4 |
A2c2B2A2 | F2B2A2E2F4 | A2BcF3EF4 |
c2A2c2A2 | e2A2e3cB4 | A2GFE2F2A4 |
A3cB2A2 | F2B2A2E2F4 | A2GAF2E2F4

@@@ Tune index: 6520
